outputs/icons/image/timer_round.svg

<svg width="1200" height="1200" viewBox="0 0 1200 1200" fill="none" xmlns="http://www.w3.org/2000/svg"><g clip-path="url(#clip0_238_2746)"><path fill-rule="evenodd" d="M700 150H500C472.5 150 450 127.5 450 100C450 72.5 472.5 50 500 50H700C727.5 50 750 72.5 750 100C750 127.5 727.5 150 700 150ZM989.005 332L951.505 369.5C1013.005 446.5 1050.005 544 1050.005 650C1050.005 898.5 849.005 1100 600.005 1100C347.005 1100 143.505 892 150.005 638C156.005 398 360.005 200 600.005 200C706.005 200 803.505 237 881.005 299L918.505 261.5C938.005 242.5 969.005 242 988.505 261.5L989.005 262C1008.505 281.5 1008.005 313 989.005 332ZM600.005 700C627.505 700 650.005 677.5 650.005 650V450C650.005 422.5 627.505 400 600.005 400C572.505 400 550.005 422.5 550.005 450V650C550.005 677.5 572.505 700 600.005 700Z" fill="#1D1E23"/></g><defs><clipPath id="clip0_238_2746"><path width="24" fill="white" d="M0 0H1200V1200H0V0z"/></clipPath></defs></svg>

<svg xmlns="http://www.w3.org/2000/svg" width="1200" height="1200" fill="none"><g fill="#000" clip-path="url(#a)"><path d="M700 150H500c-27.5 0-50-22.5-50-50s22.5-50 50-50h200c27.5 0 50 22.5 50 50s-22.5 50-50 50"/><path fill-rule="evenodd" d="m989.005 332-37.5 37.5c61.5 77 98.5 174.5 98.5 280.5 0 248.5-201 450-450 450-253 0-456.5-208-450-462 6-240 210-438 450-438 106 0 203.5 37 281 99l37.5-37.5c19.5-19 50.5-19.5 70 0l.5.5c19.5 19.5 19 51 0 70m-389 368c27.5 0 50-22.5 50-50V450c0-27.5-22.5-50-50-50s-50 22.5-50 50v200c0 27.5 22.5 50 50 50"/></g><defs><clipPath id="a"><path fill="#fff" d="M0 0h1200v1200H0z"/></clipPath></defs></svg>
